X: 21074
Q: "Slow."
M: C
L: 1/8
K: C
[|\
g>gfg B>c {c}e2 | f>d g>f d>c c2 |]\
b>g g>f e>f G2 |
e<e f<f b>g g>f |\
gce>B G>F F2 | GG e>f {e}d>c d<f |\
g>g f>g c2 Bc | e>d g>f d>c c2 |]


